X: 7638
T: Colbagh Breck
R: jig
M: 6/8
K: Cmajor
A|ddd d2 A|A2 G F2 G|A2 B cAB|(c3 c2) A|
A2 d A2 G|F2 G A2 d|A2 d ddc|(d3 d2)||
A|ddd d2 A|A2 G F2 G|A2 B cAB|(c3 c2) A|
A2 d d2 A|F2 G A2 d|A2 d ddc|(d3 d2)||

